files/icons/logo.svg

<svg width="584" height="292" viewBox="0 0 584 292" fill="none" xmlns="http://www.w3.org/2000/svg">
<g clip-path="url(#clip0_634_436)">
<g clip-path="url(#clip1_634_436)">
<circle cx="584" cy="292" r="232" transform="rotate(90 584 292)" stroke="#F6B17A" stroke-width="10"/>
<circle cx="584" cy="292" r="163.053" transform="rotate(90 584 292)" stroke="#F6B17A" stroke-width="10"/>
<circle cx="584" cy="292" r="50.0879" transform="rotate(90 584 292)" stroke="#F6B17A" stroke-width="10"/>
<circle cx="583.999" cy="292" r="104.548" transform="rotate(90 583.999 292)" stroke="#F6B17A" stroke-width="10"/>
</g>
<path d="M51.3647 106.167C42.9647 106.167 35.638 105.14 29.3847 103.087C23.1313 101.033 18.3247 98.1401 14.9647 94.4067C11.698 90.5801 10.0647 86.1467 10.0647 81.1067C10.0647 73.4534 15.2447 69.6267 25.6047 69.6267C25.978 76.7201 28.358 82.0867 32.7447 85.7267C37.2247 89.3667 43.478 91.1867 51.5047 91.1867C58.1313 91.1867 63.2647 90.0667 66.9047 87.8267C70.5447 85.4934 72.3647 82.2734 72.3647 78.1667C72.3647 75.4601 71.6647 73.2667 70.2647 71.5867C68.8647 69.8134 66.4847 68.2734 63.1247 66.9667C59.7647 65.5667 54.8647 64.1667 48.4247 62.7667C39.278 60.6201 32.0447 58.2401 26.7247 55.6267C21.498 53.0134 17.718 49.8867 15.3847 46.2467C13.0513 42.5134 11.8847 37.8934 11.8847 32.3867C11.8847 27.0667 13.4247 22.4001 16.5047 18.3867C19.678 14.3734 24.1113 11.2467 29.8047 9.00673C35.5913 6.76673 42.218 5.64673 49.6847 5.64673C56.8713 5.64673 63.2647 6.62673 68.8647 8.58674C74.558 10.4534 78.9913 13.1134 82.1647 16.5667C85.4313 20.0201 87.0647 23.9867 87.0647 28.4667C87.0647 35.3734 82.0713 38.9667 72.0847 39.2467C71.5247 32.8067 69.4713 28.0934 65.9247 25.1067C62.378 22.1201 56.9647 20.6267 49.6847 20.6267C43.4313 20.6267 38.6247 21.6534 35.2647 23.7067C31.9047 25.7601 30.2247 28.6534 30.2247 32.3867C30.2247 35.0001 30.878 37.1934 32.1847 38.9667C33.4913 40.6467 35.6847 42.1401 38.7647 43.4467C41.8447 44.6601 46.2313 45.9201 51.9247 47.2267C61.538 49.3734 69.1447 51.8001 74.7447 54.5067C80.3447 57.1201 84.4047 60.3401 86.9247 64.1667C89.4447 67.9001 90.7047 72.5201 90.7047 78.0267C90.7047 83.7201 89.0713 88.7134 85.8047 93.0067C82.6313 97.2067 78.058 100.473 72.0847 102.807C66.2047 105.047 59.298 106.167 51.3647 106.167ZM105.593 19.0867C105.593 14.7934 107.086 11.4801 110.073 9.14674C113.059 6.8134 117.353 5.64673 122.953 5.64673V42.0467C121.739 43.3534 120.619 44.8467 119.593 46.5267L120.433 47.0867C126.873 38.1267 135.086 33.6467 145.073 33.6467C149.833 33.6467 154.033 34.7201 157.673 36.8667C161.313 39.0134 164.113 41.9534 166.073 45.6867C168.126 49.4201 169.153 53.6201 169.153 58.2867V95.5267C169.153 99.2601 167.706 101.967 164.813 103.647C161.919 105.327 157.533 106.167 151.653 106.167V60.8067C151.653 57.2601 150.579 54.3667 148.433 52.1267C146.379 49.8867 143.346 48.7667 139.333 48.7667C134.573 48.7667 130.653 50.2601 127.573 53.2467C124.493 56.1401 122.953 59.7801 122.953 64.1667V95.5267C122.953 99.2601 121.506 101.967 118.613 103.647C115.719 105.327 111.379 106.167 105.593 106.167V19.0867ZM208.846 106.167C204.086 106.167 199.699 105.233 195.686 103.367C191.766 101.5 188.593 98.8401 186.166 95.3867C183.833 91.8401 182.666 87.6401 182.666 82.7867C182.666 77.9334 183.926 73.7334 186.446 70.1867C188.966 66.5467 192.373 63.7934 196.666 61.9267C201.053 59.9667 205.859 58.9867 211.086 58.9867C215.379 58.9867 219.206 59.6867 222.566 61.0867C226.019 62.3934 229.193 64.4001 232.086 67.1067L232.786 66.4067C231.946 65.5667 230.499 64.3067 228.446 62.6267V59.8267C228.446 56.0001 227.093 52.9667 224.386 50.7267C221.679 48.4867 217.899 47.3667 213.046 47.3667C204.366 47.3667 197.973 50.5401 193.866 56.8867C191.813 56.2334 190.086 55.2067 188.686 53.8067C187.286 52.3134 186.586 50.7267 186.586 49.0467C186.586 46.2467 187.846 43.6801 190.366 41.3467C192.886 39.0134 196.293 37.1467 200.586 35.7467C204.879 34.3467 209.546 33.6467 214.586 33.6467C224.479 33.6467 232.133 35.9801 237.546 40.6467C242.959 45.2201 245.666 51.4734 245.666 59.4067V94.4067C245.666 98.5134 244.359 101.5 241.746 103.367C239.133 105.233 235.026 106.167 229.426 106.167V100.427C231.013 98.8401 232.086 97.6734 232.646 96.9267L232.086 96.2267C229.006 99.4934 225.693 101.967 222.146 103.647C218.693 105.327 214.259 106.167 208.846 106.167ZM213.326 93.4267C218.179 93.4267 221.959 92.4934 224.666 90.6267C227.373 88.7601 228.726 86.1001 228.726 82.6467C228.726 79.2867 227.326 76.6267 224.526 74.6667C221.819 72.7067 218.133 71.7267 213.466 71.7267C209.173 71.7267 205.766 72.7067 203.246 74.6667C200.819 76.5334 199.606 79.1934 199.606 82.6467C199.606 86.1934 200.819 88.9001 203.246 90.7667C205.673 92.5401 209.033 93.4267 213.326 93.4267ZM298.728 48.7667C293.222 48.7667 288.742 50.2601 285.288 53.2467C281.835 56.1401 280.108 59.7801 280.108 64.1667V95.5267C280.108 99.2601 278.708 101.967 275.908 103.647C273.108 105.327 268.722 106.167 262.748 106.167V47.0867C262.748 42.7934 264.102 39.4801 266.808 37.1467C269.608 34.8134 273.808 33.6467 279.408 33.6467V41.9067C278.008 43.4934 276.888 45.0334 276.048 46.5267L276.888 47.0867C282.768 38.1267 290.142 33.6467 299.008 33.6467C303.022 33.6467 306.055 34.7201 308.108 36.8667C310.162 38.9201 311.188 41.5334 311.188 44.7067C311.188 47.1334 310.535 49.1867 309.228 50.8667C306.708 49.4667 303.208 48.7667 298.728 48.7667ZM348.809 106.167C343.022 106.167 337.749 105.047 332.989 102.807C328.229 100.473 324.449 97.3467 321.649 93.4267C318.849 89.4134 317.449 84.9334 317.449 79.9867V61.3667C317.449 56.1401 318.896 51.4267 321.789 47.2267C324.682 43.0267 328.509 39.7134 333.269 37.2867C338.122 34.8601 343.349 33.6467 348.949 33.6467C354.456 33.6467 359.496 34.8134 364.069 37.1467C368.736 39.3867 372.422 42.5601 375.129 46.6667C377.836 50.6801 379.189 55.3001 379.189 60.5267V68.3667C379.189 70.4201 378.396 72.1467 376.809 73.5467C375.316 74.9467 373.402 75.6467 371.069 75.6467H334.389V78.7267C334.389 82.7401 335.602 86.0067 338.029 88.5267C340.456 91.0467 344.096 92.3067 348.949 92.3067C353.616 92.3067 357.069 91.2801 359.309 89.2267C361.642 87.1734 362.809 84.5134 362.809 81.2467C364.489 81.0601 365.656 80.9667 366.309 80.9667C369.762 80.9667 372.469 81.7601 374.429 83.3467C376.389 84.8401 377.369 86.9867 377.369 89.7867C377.369 92.4934 376.109 95.1067 373.589 97.6267C371.069 100.147 367.616 102.2 363.229 103.787C358.842 105.373 354.036 106.167 348.809 106.167ZM363.369 63.1867V60.5267C363.369 56.6067 362.016 53.4334 359.309 51.0067C356.602 48.5801 353.102 47.3667 348.809 47.3667C344.516 47.3667 341.016 48.5801 338.309 51.0067C335.696 53.3401 334.389 56.5134 334.389 60.5267V63.1867H363.369ZM51.5047 275.167C43.8513 275.167 36.8513 273.673 30.5047 270.687C24.158 267.607 19.118 263.453 15.3847 258.227C11.7447 253 9.92468 247.307 9.92468 241.147V208.527C9.92468 202.367 11.7447 196.72 15.3847 191.587C19.118 186.36 24.158 182.253 30.5047 179.267C36.8513 176.187 43.8513 174.647 51.5047 174.647C59.158 174.647 66.158 176.187 72.5047 179.267C78.9447 182.253 83.9847 186.36 87.6247 191.587C91.358 196.72 93.2247 202.367 93.2247 208.527V241.147C93.2247 247.307 91.358 253 87.6247 258.227C83.9847 263.453 78.9447 267.607 72.5047 270.687C66.158 273.673 59.158 275.167 51.5047 275.167ZM51.5047 258.787C58.5047 258.787 64.1047 257.153 68.3047 253.887C72.5047 250.527 74.6047 246.187 74.6047 240.867V208.947C74.6047 203.533 72.5047 199.193 68.3047 195.927C64.1047 192.567 58.5047 190.887 51.5047 190.887C44.598 190.887 39.0447 192.567 34.8447 195.927C30.6447 199.193 28.5447 203.533 28.5447 208.947V240.867C28.5447 246.187 30.6447 250.527 34.8447 253.887C39.0447 257.153 44.598 258.787 51.5047 258.787ZM170.21 261.587C170.21 265.973 168.81 269.333 166.01 271.667C163.304 274 159.15 275.167 153.55 275.167V266.767C154.764 265.367 155.884 263.827 156.91 262.147L156.07 261.587C150.097 270.64 142.07 275.167 131.99 275.167C127.23 275.167 122.937 274.093 119.11 271.947C115.377 269.707 112.39 266.627 110.15 262.707C108.004 258.787 106.93 254.353 106.93 249.407V213.287C106.93 209.46 108.33 206.753 111.13 205.167C114.024 203.487 118.41 202.647 124.29 202.647V248.147C124.29 251.787 125.41 254.68 127.65 256.827C129.89 258.973 133.11 260.047 137.31 260.047C141.977 260.047 145.71 258.6 148.51 255.707C151.404 252.72 152.85 249.033 152.85 244.647V213.287C152.85 209.46 154.25 206.753 157.05 205.167C159.85 203.487 164.237 202.647 170.21 202.647V261.587ZM218.789 275.167C211.229 275.167 205.629 272.973 201.989 268.587C198.349 264.2 196.529 258.553 196.529 251.647V216.927H182.109C182.109 212.54 182.949 209.273 184.629 207.127C186.309 204.98 188.549 203.907 191.349 203.907H196.809V192.287C196.809 188.46 198.209 185.753 201.009 184.167C203.809 182.487 208.056 181.647 213.749 181.647V203.907H232.369C232.369 208.573 231.483 211.933 229.709 213.987C227.936 215.947 225.089 216.927 221.169 216.927H214.029V250.947C214.029 254.213 214.636 256.547 215.849 257.947C217.156 259.347 219.349 260.047 222.429 260.047C225.696 260.047 228.963 259.16 232.229 257.387C233.163 258.227 233.909 259.3 234.469 260.607C235.029 261.82 235.309 263.08 235.309 264.387C235.309 267.187 233.863 269.707 230.969 271.947C228.076 274.093 224.016 275.167 218.789 275.167Z" fill="white"/>
</g>
<defs>
<clipPath id="clip0_634_436">
<rect width="584" height="292" fill="white"/>
</clipPath>
<clipPath id="clip1_634_436">
<rect width="237" height="237" fill="white" transform="translate(584 55) rotate(90)"/>
</clipPath>
</defs>
</svg>

<svg width="584" height="292" fill="none" xmlns="http://www.w3.org/2000/svg">
  <g clip-path="url(#a)">
    <g clip-path="url(#b)" stroke="#F6B17A" stroke-width="10">
      <circle cx="584" cy="292" r="232" transform="rotate(90 584 292)"/>
      <circle cx="584" cy="292" r="163.053" transform="rotate(90 584 292)"/>
      <circle cx="584" cy="292" r="50.088" transform="rotate(90 584 292)"/>
      <circle cx="583.999" cy="292" r="104.548" transform="rotate(90 583.999 292)"/>
    </g>
    <path d="M51.365 106.167c-8.4 0-15.727-1.027-21.98-3.08-6.254-2.054-11.06-4.947-14.42-8.68-3.267-3.827-4.9-8.26-4.9-13.3 0-7.654 5.18-11.48 15.54-11.48.373 7.093 2.753 12.46 7.14 16.1 4.48 3.64 10.733 5.46 18.76 5.46 6.626 0 11.76-1.12 15.4-3.36 3.64-2.334 5.46-5.554 5.46-9.66 0-2.707-.7-4.9-2.1-6.58-1.4-1.774-3.78-3.314-7.14-4.62-3.36-1.4-8.26-2.8-14.7-4.2-9.147-2.147-16.38-4.527-21.7-7.14-5.227-2.614-9.007-5.74-11.34-9.38-2.334-3.734-3.5-8.354-3.5-13.86 0-5.32 1.54-9.987 4.62-14 3.173-4.014 7.606-7.14 13.3-9.38 5.786-2.24 12.413-3.36 19.88-3.36 7.186 0 13.58.98 19.18 2.94 5.693 1.866 10.126 4.526 13.3 7.98 3.266 3.453 4.9 7.42 4.9 11.9 0 6.906-4.994 10.5-14.98 10.78-.56-6.44-2.614-11.154-6.16-14.14-3.547-2.987-8.96-4.48-16.24-4.48-6.254 0-11.06 1.026-14.42 3.08-3.36 2.053-5.04 4.946-5.04 8.68 0 2.613.653 4.806 1.96 6.58 1.306 1.68 3.5 3.173 6.58 4.48 3.08 1.213 7.466 2.473 13.16 3.78 9.613 2.146 17.22 4.573 22.82 7.28 5.6 2.613 9.66 5.833 12.18 9.66 2.52 3.733 3.78 8.353 3.78 13.86 0 5.693-1.634 10.686-4.9 14.98-3.174 4.2-7.747 7.466-13.72 9.8-5.88 2.24-12.787 3.36-20.72 3.36Zm54.228-87.08c0-4.294 1.493-7.607 4.48-9.94 2.986-2.334 7.28-3.5 12.88-3.5v36.4c-1.214 1.306-2.334 2.8-3.36 4.48l.84.56c6.44-8.96 14.653-13.44 24.64-13.44 4.76 0 8.96 1.073 12.6 3.22 3.64 2.146 6.44 5.086 8.4 8.82 2.053 3.733 3.08 7.933 3.08 12.6v37.24c0 3.733-1.447 6.44-4.34 8.12-2.894 1.68-7.28 2.52-13.16 2.52v-45.36c0-3.547-1.074-6.44-3.22-8.68-2.054-2.24-5.087-3.36-9.1-3.36-4.76 0-8.68 1.493-11.76 4.48-3.08 2.893-4.62 6.533-4.62 10.92v31.36c0 3.733-1.447 6.44-4.34 8.12-2.894 1.68-7.234 2.52-13.02 2.52v-87.08Zm103.253 87.08c-4.76 0-9.147-.934-13.16-2.8-3.92-1.867-7.093-4.527-9.52-7.98-2.333-3.547-3.5-7.747-3.5-12.6 0-4.854 1.26-9.054 3.78-12.6 2.52-3.64 5.927-6.394 10.22-8.26 4.387-1.96 9.193-2.94 14.42-2.94 4.293 0 8.12.7 11.48 2.1 3.453 1.306 6.627 3.313 9.52 6.02l.7-.7c-.84-.84-2.287-2.1-4.34-3.78v-2.8c0-3.827-1.353-6.86-4.06-9.1-2.707-2.24-6.487-3.36-11.34-3.36-8.68 0-15.073 3.173-19.18 9.52-2.053-.654-3.78-1.68-5.18-3.08-1.4-1.494-2.1-3.08-2.1-4.76 0-2.8 1.26-5.367 3.78-7.7 2.52-2.334 5.927-4.2 10.22-5.6 4.293-1.4 8.96-2.1 14-2.1 9.893 0 17.547 2.333 22.96 7 5.413 4.573 8.12 10.826 8.12 18.76v35c0 4.106-1.307 7.093-3.92 8.96-2.613 1.866-6.72 2.8-12.32 2.8v-5.74c1.587-1.587 2.66-2.754 3.22-3.5l-.56-.7c-3.08 3.266-6.393 5.74-9.94 7.42-3.453 1.68-7.887 2.52-13.3 2.52Zm4.48-12.74c4.853 0 8.633-.934 11.34-2.8 2.707-1.867 4.06-4.527 4.06-7.98 0-3.36-1.4-6.02-4.2-7.98-2.707-1.96-6.393-2.94-11.06-2.94-4.293 0-7.7.98-10.22 2.94-2.427 1.866-3.64 4.526-3.64 7.98 0 3.546 1.213 6.253 3.64 8.12 2.427 1.773 5.787 2.66 10.08 2.66Zm85.402-44.66c-5.506 0-9.986 1.493-13.44 4.48-3.453 2.893-5.18 6.533-5.18 10.92v31.36c0 3.733-1.4 6.44-4.2 8.12-2.8 1.68-7.186 2.52-13.16 2.52v-59.08c0-4.294 1.354-7.607 4.06-9.94 2.8-2.334 7-3.5 12.6-3.5v8.26c-1.4 1.586-2.52 3.126-3.36 4.62l.84.56c5.88-8.96 13.254-13.44 22.12-13.44 4.014 0 7.047 1.073 9.1 3.22 2.054 2.053 3.08 4.666 3.08 7.84 0 2.426-.653 4.48-1.96 6.16-2.52-1.4-6.02-2.1-10.5-2.1Zm50.081 57.4c-5.787 0-11.06-1.12-15.82-3.36-4.76-2.334-8.54-5.46-11.34-9.38-2.8-4.014-4.2-8.494-4.2-13.44v-18.62c0-5.227 1.447-9.94 4.34-14.14 2.893-4.2 6.72-7.514 11.48-9.94 4.853-2.427 10.08-3.64 15.68-3.64 5.507 0 10.547 1.166 15.12 3.5 4.667 2.24 8.353 5.413 11.06 9.52 2.707 4.013 4.06 8.633 4.06 13.86v7.84c0 2.053-.793 3.78-2.38 5.18-1.493 1.4-3.407 2.1-5.74 2.1h-36.68v3.08c0 4.013 1.213 7.28 3.64 9.8 2.427 2.52 6.067 3.78 10.92 3.78 4.667 0 8.12-1.027 10.36-3.08 2.333-2.054 3.5-4.714 3.5-7.98 1.68-.187 2.847-.28 3.5-.28 3.453 0 6.16.793 8.12 2.38 1.96 1.493 2.94 3.64 2.94 6.44 0 2.706-1.26 5.32-3.78 7.84-2.52 2.52-5.973 4.573-10.36 6.16-4.387 1.586-9.193 2.38-14.42 2.38Zm14.56-42.98v-2.66c0-3.92-1.353-7.094-4.06-9.52-2.707-2.427-6.207-3.64-10.5-3.64s-7.793 1.213-10.5 3.64c-2.613 2.333-3.92 5.506-3.92 9.52v2.66h28.98ZM51.505 275.167c-7.654 0-14.654-1.494-21-4.48-6.347-3.08-11.387-7.234-15.12-12.46-3.64-5.227-5.46-10.92-5.46-17.08v-32.62c0-6.16 1.82-11.807 5.46-16.94 3.733-5.227 8.773-9.334 15.12-12.32 6.346-3.08 13.346-4.62 21-4.62 7.653 0 14.653 1.54 21 4.62 6.44 2.986 11.48 7.093 15.12 12.32 3.733 5.133 5.6 10.78 5.6 16.94v32.62c0 6.16-1.867 11.853-5.6 17.08-3.64 5.226-8.68 9.38-15.12 12.46-6.347 2.986-13.347 4.48-21 4.48Zm0-16.38c7 0 12.6-1.634 16.8-4.9 4.2-3.36 6.3-7.7 6.3-13.02v-31.92c0-5.414-2.1-9.754-6.3-13.02-4.2-3.36-9.8-5.04-16.8-5.04-6.907 0-12.46 1.68-16.66 5.04-4.2 3.266-6.3 7.606-6.3 13.02v31.92c0 5.32 2.1 9.66 6.3 13.02 4.2 3.266 9.753 4.9 16.66 4.9Zm118.705 2.8c0 4.386-1.4 7.746-4.2 10.08-2.706 2.333-6.86 3.5-12.46 3.5v-8.4a34.396 34.396 0 0 0 3.36-4.62l-.84-.56c-5.973 9.053-14 13.58-24.08 13.58-4.76 0-9.053-1.074-12.88-3.22-3.733-2.24-6.72-5.32-8.96-9.24-2.146-3.92-3.22-8.354-3.22-13.3v-36.12c0-3.827 1.4-6.534 4.2-8.12 2.894-1.68 7.28-2.52 13.16-2.52v45.5c0 3.64 1.12 6.533 3.36 8.68 2.24 2.146 5.46 3.22 9.66 3.22 4.667 0 8.4-1.447 11.2-4.34 2.894-2.987 4.34-6.674 4.34-11.06v-31.36c0-3.827 1.4-6.534 4.2-8.12 2.8-1.68 7.187-2.52 13.16-2.52v58.94Zm48.579 13.58c-7.56 0-13.16-2.194-16.8-6.58-3.64-4.387-5.46-10.034-5.46-16.94v-34.72h-14.42c0-4.387.84-7.654 2.52-9.8 1.68-2.147 3.92-3.22 6.72-3.22h5.46v-11.62c0-3.827 1.4-6.534 4.2-8.12 2.8-1.68 7.047-2.52 12.74-2.52v22.26h18.62c0 4.666-.886 8.026-2.66 10.08-1.773 1.96-4.62 2.94-8.54 2.94h-7.14v34.02c0 3.266.607 5.6 1.82 7 1.307 1.4 3.5 2.1 6.58 2.1 3.267 0 6.534-.887 9.8-2.66.934.84 1.68 1.913 2.24 3.22a8.92 8.92 0 0 1 .84 3.78c0 2.8-1.446 5.32-4.34 7.56-2.893 2.146-6.953 3.22-12.18 3.22Z" fill="#fff"/>
  </g>
  <defs>
    <clipPath id="a">
      <path fill="#fff" d="M0 0h584v292H0z"/>
    </clipPath>
    <clipPath id="b">
      <path fill="#fff" transform="rotate(90 264.5 319.5)" d="M0 0h237v237H0z"/>
    </clipPath>
  </defs>
</svg>
